X: 1
T: Highland, The
M: 4/4
L: 1/8
R: reel
K: Ador
eA(3AAA efgf|eA(3AAA a2gf|eA(3AAA efge|dBGB d2fg:|
aA(3AAA gA(3AAA|aA(3AAA g2fg|1aA(3AAA efge|dBGB d2fg:|2 afge fded|BG(3GGG g2fg||
